X: 1
T:A Good Roll-up
M:4/4
L:1/8
C:Copyright 1995 Michael Robinson
R:Air
N:To the memory of Allan Madden
K:G
GA|"G" Bdef "C"g2 fe|"G"d2 de "Em"B2 AG|"Am"A2AB cBcd|"C"e2d2 "D"d4|
"C"gfeg "G"d2 cB|"Am"cBcd "Em"B2 AG|"C"G2G2 "D"FGA2|"G"B2 "C"G2 "G"G4||
"G"d2d2 d2Bd|"C"e2e2 "G"d4|"Am"c2B2 A2G2|"D"FGA2 DEF2|
"G"G2G2 "D"A2GA|"G"Bcd2 "C"e4|"G"d2B2 "D"ABc2|"G"B2 "C"G2 "G"G4||
